assets/components_previews/other/light/script.svg

<svg xmlns="http://www.w3.org/2000/svg" width="320" height="232" fill="none" viewBox="0 0 320 232"><path fill="#AA99EC" fill-rule="evenodd" d="M165.118 103.222a1 1 0 0 0 .104 1.411l1.84 1.585c.366.316.587.508.728.657-.141.149-.362.341-.728.657l-1.84 1.586a1 1 0 0 0 1.306 1.515l1.84-1.586.043-.038c.349-.3.684-.589.923-.859.262-.296.541-.713.541-1.275s-.279-.979-.541-1.275c-.239-.27-.574-.558-.923-.859l-.043-.038-1.84-1.585a1 1 0 0 0-1.41.104m-2.486 0a1 1 0 0 1-.104 1.411l-1.84 1.585c-.366.316-.587.508-.728.657.141.149.362.341.728.657l1.84 1.586a1 1 0 0 1-1.306 1.515l-1.84-1.586-.043-.038c-.349-.3-.684-.589-.923-.859-.262-.296-.541-.713-.541-1.275s.279-.979.541-1.275c.239-.27.574-.558.923-.859l.043-.038 1.84-1.585a1 1 0 0 1 1.41.104" clip-rule="evenodd"/><path fill="#AA99EC" d="M154.812 110.522c.982.103.545.103 2.086.103a.978.978 0 0 0 0-1.955c-1.609 0-1.015-.001-1.885-.092-.854-.089-1.337-.256-1.695-.509a3 3 0 0 1-.632-.596c-.255-.323-.425-.756-.517-1.542-.095-.81-.097-1.867-.097-3.391v-2.9c0-.267 0-.906.281-1.378.173-.29.394-.534.622-.658a2.6 2.6 0 0 1 1.233-.312l1.041.036c.38.008.823-.004 1.251-.119a2.42 2.42 0 0 0 1.709-1.709c.115-.428.127-.871.119-1.251l-.036-1.04c0-.469.124-.876.341-1.254.127-.22.348-.423.653-.6.462-.269 1.015-.271 1.353-.273l.993-.002c1.834 0 2.501.014 3.005.19.872.308 1.538.95 1.848 1.735.078.197.133.455.162.903.03.457.031 1.04.031 1.88v5.113a.974.974 0 1 0 1.947 0v-5.146c0-.8 0-1.447-.035-1.975-.036-.545-.111-1.03-.294-1.495-.529-1.34-1.638-2.373-3.014-2.858-.859-.303-2.331-.303-3.886-.302-2.84 0-4.526 0-5.909.487-2.22.782-3.994 2.444-4.837 4.58-.281.712-.406 1.477-.466 2.394-.059.9-.059 2.013-.059 3.432v2.583c0 1.448 0 2.621.11 3.558.114.974.357 1.811.927 2.53a5 5 0 0 0 1.034.978c.745.526 1.606.75 2.616.855" opacity=".4"/><path fill="#AA99EC" d="M120.94 138v-8.8h1.952v1.776h.544l-.592.48q0-1.12.656-1.76.672-.656 1.824-.656 1.344 0 2.096.864t.752 2.416v.832h-2v-.736q0-.816-.416-1.232t-1.184-.416q-.784 0-1.216.48-.416.48-.416 1.36V138zm7.978 0 3.072-4.544-2.864-4.256h2.256l1.36 2.16q.128.192.224.432.112.24.176.384.064-.144.176-.384t.224-.432l1.36-2.16h2.272l-2.864 4.256 3.056 4.544h-2.272l-1.52-2.416a5 5 0 0 1-.24-.448 7 7 0 0 0-.192-.384l-.176.384q-.113.24-.24.448L131.19 138zm13.178.16q-.672 0-1.088-.4-.4-.416-.4-1.072 0-.672.4-1.072.416-.416 1.088-.416t1.072.416q.416.4.416 1.072 0 .656-.416 1.072-.4.4-1.072.4m8.585-.016q-1.04 0-1.808-.32-.751-.32-1.168-.912t-.416-1.408h1.968q0 .512.368.784.384.272 1.056.272h.704q.72 0 1.104-.272a.91.91 0 0 0 .4-.784q0-.48-.272-.72-.271-.24-.832-.304l-2.192-.288q-1.056-.127-1.632-.816-.56-.688-.56-1.744 0-1.248.832-1.904.832-.672 2.4-.672h.736q1.473 0 2.368.672.897.672.928 1.792h-1.984a.79.79 0 0 0-.368-.656q-.351-.256-.944-.256h-.736q-.64 0-.976.272a.84.84 0 0 0-.336.704q0 .4.24.592.256.175.736.24l2.064.288q1.216.16 1.824.88.624.704.624 1.888 0 1.28-.88 1.984-.864.688-2.544.688zm9.466.016q-1.136 0-1.984-.416a3.2 3.2 0 0 1-1.296-1.2q-.464-.784-.464-1.84v-2.208q0-1.072.464-1.84a3.1 3.1 0 0 1 1.296-1.184q.848-.432 1.984-.432 1.649 0 2.64.864.992.848 1.056 2.32h-1.968q-.048-.689-.512-1.056-.464-.384-1.216-.384-.816 0-1.28.448-.464.432-.464 1.248v2.224q0 .816.464 1.264t1.28.448q.752 0 1.216-.368.464-.384.512-1.072h1.968q-.064 1.472-1.056 2.336-.992.848-2.64.848m5.562-.16v-8.8h1.952v1.776h.544l-.592.48q0-1.12.656-1.76.672-.656 1.824-.656 1.344 0 2.096.864t.752 2.416v.832h-2v-.736q0-.816-.416-1.232t-1.184-.416q-.784 0-1.216.48-.416.48-.416 1.36V138zm8.618 0v-1.808h3.008v-5.184h-2.688V129.2h4.688v6.992h2.704V138zm3.872-10.272q-.609 0-.96-.304-.352-.32-.352-.848t.352-.832q.351-.32.96-.32.608 0 .96.32.352.304.352.832t-.352.848q-.353.304-.96.304m5.097 13.152V129.2h1.952v1.776h.448l-.576.832q0-1.28.688-2.016.689-.752 1.856-.752.849 0 1.488.432.657.416 1.008 1.168.369.752.368 1.76v2.384q0 1.008-.368 1.776a2.85 2.85 0 0 1-.992 1.184q-.64.416-1.504.416-1.167 0-1.856-.752-.687-.751-.688-2.016l.576.848h-.464l.064 2.176v2.464zm3.616-4.448q.768 0 1.184-.416.432-.432.432-1.28v-2.272q0-.864-.432-1.28-.416-.416-1.184-.416t-1.2.464q-.416.464-.416 1.312v2.112q0 .848.416 1.312.432.464 1.2.464m9.786 1.568q-1.231 0-1.968-.704-.72-.72-.72-1.936v-4.352h-2.432V129.2h2.432v-2.48h2.016v2.48h3.504v1.808h-3.504v4.304a.98.98 0 0 0 .208.64q.224.24.608.24h2.608V138z"/></svg>

<svg width="320" height="232" viewBox="0 0 320 232" fill="none" xmlns="http://www.w3.org/2000/svg">
<path fill-rule="evenodd" clip-rule="evenodd" d="M165.118 103.222C164.757 103.641 164.804 104.272 165.222 104.633L167.062 106.218C167.428 106.534 167.649 106.726 167.79 106.875C167.649 107.024 167.428 107.216 167.062 107.532L165.222 109.118C164.804 109.478 164.757 110.11 165.118 110.528C165.478 110.946 166.11 110.993 166.528 110.633L168.368 109.047C168.382 109.034 168.397 109.022 168.411 109.009C168.76 108.709 169.095 108.42 169.334 108.15C169.596 107.854 169.875 107.437 169.875 106.875C169.875 106.313 169.596 105.896 169.334 105.6C169.095 105.33 168.76 105.042 168.411 104.741C168.397 104.728 168.382 104.716 168.368 104.703L166.528 103.118C166.11 102.757 165.478 102.804 165.118 103.222Z" fill="#AA99EC"/>
<path fill-rule="evenodd" clip-rule="evenodd" d="M162.632 103.222C162.993 103.641 162.946 104.272 162.528 104.633L160.688 106.218C160.322 106.534 160.101 106.726 159.96 106.875C160.101 107.024 160.322 107.216 160.688 107.532L162.528 109.118C162.946 109.478 162.993 110.11 162.632 110.528C162.272 110.946 161.641 110.993 161.222 110.633L159.382 109.047C159.368 109.034 159.353 109.022 159.339 109.009C158.99 108.709 158.655 108.42 158.416 108.15C158.154 107.854 157.875 107.437 157.875 106.875C157.875 106.313 158.154 105.896 158.416 105.6C158.655 105.33 158.99 105.042 159.339 104.741C159.353 104.728 159.368 104.716 159.382 104.703L161.222 103.118C161.641 102.757 162.272 102.804 162.632 103.222Z" fill="#AA99EC"/>
<path opacity="0.4" d="M154.812 110.522C155.794 110.625 155.357 110.625 156.898 110.625C157.437 110.625 157.875 110.187 157.875 109.648C157.875 109.108 157.437 108.67 156.898 108.67C155.289 108.67 155.883 108.669 155.013 108.578C154.159 108.489 153.676 108.322 153.318 108.069C153.076 107.898 152.864 107.697 152.686 107.473C152.431 107.15 152.261 106.717 152.169 105.931C152.074 105.121 152.072 104.064 152.072 102.54L152.072 99.64C152.072 99.373 152.072 98.7344 152.353 98.2623C152.526 97.9713 152.747 97.7282 152.975 97.6044C153.341 97.4048 153.762 97.2915 154.208 97.2915L155.249 97.328C155.629 97.3359 156.072 97.3239 156.5 97.2091C157.334 96.9857 157.986 96.3343 158.209 95.5003C158.324 95.0721 158.336 94.6286 158.328 94.2485L158.292 93.2081C158.292 92.7405 158.416 92.3333 158.633 91.9549C158.76 91.7343 158.981 91.5324 159.286 91.3551C159.748 91.0862 160.301 91.0837 160.639 91.0822C160.977 91.0807 161.334 91.0795 161.632 91.0795C163.466 91.0795 164.133 91.0935 164.637 91.2708C165.509 91.5783 166.175 92.2199 166.485 93.0053C166.563 93.2019 166.618 93.4603 166.647 93.9083C166.677 94.365 166.678 94.9479 166.678 95.7882V100.901C166.678 101.439 167.114 101.875 167.651 101.875C168.189 101.875 168.625 101.439 168.625 100.901V95.755C168.625 94.9558 168.625 94.3083 168.59 93.7797C168.554 93.2351 168.479 92.7494 168.296 92.2852C167.767 90.9459 166.658 89.9116 165.282 89.4266C164.423 89.1241 162.951 89.1244 161.396 89.125C158.556 89.1246 156.87 89.1244 155.487 89.6115C153.267 90.3937 151.493 92.0564 150.65 94.1925C150.369 94.9044 150.244 95.6691 150.184 96.586C150.125 97.4867 150.125 98.5993 150.125 100.018V102.601C150.125 104.049 150.125 105.222 150.235 106.159C150.349 107.133 150.592 107.97 151.162 108.689C151.457 109.062 151.806 109.391 152.196 109.667C152.941 110.193 153.802 110.417 154.812 110.522Z" fill="#AA99EC"/>
<path d="M120.94 138V129.2H122.892V130.976H123.436L122.844 131.456C122.844 130.709 123.063 130.123 123.5 129.696C123.948 129.259 124.556 129.04 125.324 129.04C126.22 129.04 126.919 129.328 127.42 129.904C127.921 130.48 128.172 131.285 128.172 132.32V133.152H126.172V132.416C126.172 131.872 126.033 131.461 125.756 131.184C125.479 130.907 125.084 130.768 124.572 130.768C124.049 130.768 123.644 130.928 123.356 131.248C123.079 131.568 122.94 132.021 122.94 132.608V138H120.94ZM128.918 138L131.99 133.456L129.126 129.2H131.382L132.742 131.36C132.827 131.488 132.902 131.632 132.966 131.792C133.041 131.952 133.099 132.08 133.142 132.176C133.185 132.08 133.243 131.952 133.318 131.792C133.393 131.632 133.467 131.488 133.542 131.36L134.902 129.2H137.174L134.31 133.456L137.366 138H135.094L133.574 135.584C133.489 135.445 133.409 135.296 133.334 135.136C133.259 134.976 133.195 134.848 133.142 134.752C133.099 134.848 133.041 134.976 132.966 135.136C132.891 135.296 132.811 135.445 132.726 135.584L131.19 138H128.918ZM142.096 138.16C141.648 138.16 141.285 138.027 141.008 137.76C140.741 137.483 140.608 137.125 140.608 136.688C140.608 136.24 140.741 135.883 141.008 135.616C141.285 135.339 141.648 135.2 142.096 135.2C142.544 135.2 142.901 135.339 143.168 135.616C143.445 135.883 143.584 136.24 143.584 136.688C143.584 137.125 143.445 137.483 143.168 137.76C142.901 138.027 142.544 138.16 142.096 138.16ZM150.681 138.144C149.988 138.144 149.385 138.037 148.873 137.824C148.372 137.611 147.983 137.307 147.705 136.912C147.428 136.517 147.289 136.048 147.289 135.504H149.257C149.257 135.845 149.38 136.107 149.625 136.288C149.881 136.469 150.233 136.56 150.681 136.56H151.385C151.865 136.56 152.233 136.469 152.489 136.288C152.756 136.096 152.889 135.835 152.889 135.504C152.889 135.184 152.799 134.944 152.617 134.784C152.436 134.624 152.159 134.523 151.785 134.48L149.593 134.192C148.889 134.107 148.345 133.835 147.961 133.376C147.588 132.917 147.401 132.336 147.401 131.632C147.401 130.8 147.679 130.165 148.233 129.728C148.788 129.28 149.588 129.056 150.633 129.056H151.369C152.351 129.056 153.14 129.28 153.737 129.728C154.335 130.176 154.644 130.773 154.665 131.52H152.681C152.671 131.243 152.548 131.024 152.313 130.864C152.079 130.693 151.764 130.608 151.369 130.608H150.633C150.207 130.608 149.881 130.699 149.657 130.88C149.433 131.051 149.321 131.285 149.321 131.584C149.321 131.851 149.401 132.048 149.561 132.176C149.732 132.293 149.977 132.373 150.297 132.416L152.361 132.704C153.172 132.811 153.78 133.104 154.185 133.584C154.601 134.053 154.809 134.683 154.809 135.472C154.809 136.325 154.516 136.987 153.929 137.456C153.353 137.915 152.505 138.144 151.385 138.144H150.681ZM160.147 138.16C159.39 138.16 158.728 138.021 158.163 137.744C157.608 137.456 157.176 137.056 156.867 136.544C156.558 136.021 156.403 135.408 156.403 134.704V132.496C156.403 131.781 156.558 131.168 156.867 130.656C157.176 130.144 157.608 129.749 158.163 129.472C158.728 129.184 159.39 129.04 160.147 129.04C161.246 129.04 162.126 129.328 162.787 129.904C163.448 130.469 163.8 131.243 163.843 132.224H161.875C161.843 131.765 161.672 131.413 161.363 131.168C161.054 130.912 160.648 130.784 160.147 130.784C159.603 130.784 159.176 130.933 158.867 131.232C158.558 131.52 158.403 131.936 158.403 132.48V134.704C158.403 135.248 158.558 135.669 158.867 135.968C159.176 136.267 159.603 136.416 160.147 136.416C160.648 136.416 161.054 136.293 161.363 136.048C161.672 135.792 161.843 135.435 161.875 134.976H163.843C163.8 135.957 163.448 136.736 162.787 137.312C162.126 137.877 161.246 138.16 160.147 138.16ZM165.709 138V129.2H167.661V130.976H168.205L167.613 131.456C167.613 130.709 167.832 130.123 168.269 129.696C168.717 129.259 169.325 129.04 170.093 129.04C170.989 129.04 171.688 129.328 172.189 129.904C172.69 130.48 172.941 131.285 172.941 132.32V133.152H170.941V132.416C170.941 131.872 170.802 131.461 170.525 131.184C170.248 130.907 169.853 130.768 169.341 130.768C168.818 130.768 168.413 130.928 168.125 131.248C167.848 131.568 167.709 132.021 167.709 132.608V138H165.709ZM174.327 138V136.192H177.335V131.008H174.647V129.2H179.335V136.192H182.039V138H174.327ZM178.199 127.728C177.793 127.728 177.473 127.627 177.239 127.424C177.004 127.211 176.887 126.928 176.887 126.576C176.887 126.224 177.004 125.947 177.239 125.744C177.473 125.531 177.793 125.424 178.199 125.424C178.604 125.424 178.924 125.531 179.159 125.744C179.393 125.947 179.511 126.224 179.511 126.576C179.511 126.928 179.393 127.211 179.159 127.424C178.924 127.627 178.604 127.728 178.199 127.728ZM183.296 140.88V129.2H185.248V130.976H185.696L185.12 131.808C185.12 130.955 185.35 130.283 185.808 129.792C186.267 129.291 186.886 129.04 187.664 129.04C188.23 129.04 188.726 129.184 189.152 129.472C189.59 129.749 189.926 130.139 190.16 130.64C190.406 131.141 190.528 131.728 190.528 132.4V134.784C190.528 135.456 190.406 136.048 190.16 136.56C189.926 137.061 189.595 137.456 189.168 137.744C188.742 138.021 188.24 138.16 187.664 138.16C186.886 138.16 186.267 137.909 185.808 137.408C185.35 136.907 185.12 136.235 185.12 135.392L185.696 136.24H185.232L185.296 138.416V140.88H183.296ZM186.912 136.432C187.424 136.432 187.819 136.293 188.096 136.016C188.384 135.728 188.528 135.301 188.528 134.736V132.464C188.528 131.888 188.384 131.461 188.096 131.184C187.819 130.907 187.424 130.768 186.912 130.768C186.4 130.768 186 130.923 185.712 131.232C185.435 131.541 185.296 131.979 185.296 132.544V134.656C185.296 135.221 185.435 135.659 185.712 135.968C186 136.277 186.4 136.432 186.912 136.432ZM196.698 138C195.877 138 195.221 137.765 194.73 137.296C194.25 136.816 194.01 136.171 194.01 135.36V131.008H191.578V129.2H194.01V126.72H196.026V129.2H199.53V131.008H196.026V135.312C196.026 135.568 196.095 135.781 196.234 135.952C196.383 136.112 196.586 136.192 196.842 136.192H199.45V138H196.698Z" fill="#AA99EC"/>
</svg>
